
;Exported by FreeCAD
;Post Processor: centroid_post
;CAM file: /home/androiders/workspace/FreeCad/Backplate/backplate.fcstd
;Output Time: 2018-10-07 16:05:19.597625
G90 G80 G40 G49
;T1=Default_Tool
;T1=Default_Tool
;begin preamble
G53 G00 G17
G20
;begin operation
;Default Tool
M6 T1
M3 S5000
;end operation: Default Tool
;begin operation
;Profile_Faces
;Compensated Tool Path. Diameter: 2.0
G0 Z5.0000
G0 X-12.8804 Y-17.8802
G0 Z3.0000
G1 X-12.8804 Y-17.8802 Z-0.5000 F1200.0
G2 X-14.3901 Y-22.9350 Z-0.5000 I-2.1197 J-2.1197 F1800.0
G2 X-17.9369 Y-20.6015 Z-0.5000 I-0.6100 J2.9350 F1800.0
G2 X-15.5932 Y-17.0614 Z-0.5000 I2.9368 J0.6016 F1800.0
G2 X-12.8804 Y-17.8802 Z-0.5000 I0.5931 J-2.9385 F1800.0
G1 X-12.8804 Y-17.8802 Z-1.0000 F1200.0
G2 X-14.3901 Y-22.9350 Z-1.0000 I-2.1197 J-2.1197 F1800.0
G2 X-17.9369 Y-20.6015 Z-1.0000 I-0.6100 J2.9350 F1800.0
G2 X-15.5932 Y-17.0614 Z-1.0000 I2.9368 J0.6016 F1800.0
G2 X-12.8804 Y-17.8802 Z-1.0000 I0.5931 J-2.9385 F1800.0
G1 X-12.8804 Y-17.8802 Z-1.1000 F1200.0
G2 X-14.3901 Y-22.9350 Z-1.1000 I-2.1197 J-2.1197 F1800.0
G2 X-17.9369 Y-20.6015 Z-1.1000 I-0.6100 J2.9350 F1800.0
G2 X-15.5932 Y-17.0614 Z-1.1000 I2.9368 J0.6016 F1800.0
G2 X-12.8804 Y-17.8802 Z-1.1000 I0.5931 J-2.9385 F1800.0
G0 Z5.0000
;end operation: Profile_Faces
;begin operation
;Default Tool
M6 T1
M3 S5000
;end operation: Default Tool
;begin operation
;Profile_Faces001
;Compensated Tool Path. Diameter: 2.0
G0 Z5.0000
G0 X17.1199 Y-17.8803
G0 Z3.0000
G1 X17.1199 Y-17.8803 Z-0.5000 F1200.0
G2 X15.9717 Y-22.8360 Z-0.5000 I-2.1197 J-2.1197 F1800.0
G1 X15.5932 Y-22.9386 Z-0.5000 F1800.0
G2 X14.3901 Y-17.0650 Z-0.5000 I-0.5931 J2.9385 F1800.0
G2 X17.1199 Y-17.8803 Z-0.5000 I0.6100 J-2.9350 F1800.0
G1 X17.1199 Y-17.8803 Z-1.0000 F1200.0
G2 X15.9717 Y-22.8360 Z-1.0000 I-2.1197 J-2.1197 F1800.0
G1 X15.5932 Y-22.9386 Z-1.0000 F1800.0
G2 X14.3901 Y-17.0650 Z-1.0000 I-0.5931 J2.9385 F1800.0
G2 X17.1199 Y-17.8803 Z-1.0000 I0.6100 J-2.9350 F1800.0
G1 X17.1199 Y-17.8803 Z-1.1000 F1200.0
G2 X15.9717 Y-22.8360 Z-1.1000 I-2.1197 J-2.1197 F1800.0
G1 X15.5932 Y-22.9386 Z-1.1000 F1800.0
G2 X14.3901 Y-17.0650 Z-1.1000 I-0.5931 J2.9385 F1800.0
G2 X17.1199 Y-17.8803 Z-1.1000 I0.6100 J-2.9350 F1800.0
G0 Z5.0000
;end operation: Profile_Faces001
;begin postamble
M5 M25
G49 H0
G90 G80 G40 G49
M99
